X:1
T:Sing as we go
T:Sing as we go
T:unknown
C:unknown
Z:All Rights Reserved
L:1/8
M:6/8
K:A
V:1 treble nm="Electric Piano"
%%MIDI program 4
V:1
 z2 z EFG |"A" A3- A2 F | G2 E F2 C | E6- | E6 | A,B,C E2 C | B,2 A, G,2 A, |"D" F6 |"E" E6 | %9
w: Sing as we|go * and|let the world go|by||Sing- ing a song we|march a- long the|high-|way|
 D3 E3 | F3 G2 z |"A" A3 E3- | E2 E EF_A |"E" A3 B,3- |"B7" B,2 E FGA |"E" B6- |"E7" B3 EFG | %17
w: say good-|bye to|sor- row|* there's al- ways to-|mor- row|* to think of to|day|* sing as we|
"A" A3- A2 F | G2 E F2 C | E6- | E6 |"A" A,B,C E2 C |"A" B,2 A, G,2 A, |"D" F6 |"C" G3 C3 | %25
w: go * al-|though the skies are|grey||beg- gar or king we've|got to sing a|gay|tune, a|
"Fm" A3 G2 A |"E" B3 A2 B |"A" c3 A3 | G3 F3 |"Fm" A6- | A6- | A3 F2 A |"E7" c3 c3 |"A" A6- | A6- | %35
w: song or a|smile ma- king|life worth-|while so|sing||* as we|go a-|long-||
 A3 z z2 |] %36
w: |

